icons/Snowflake.svg

<svg width="24" height="24" viewBox="0 0 24 24" fill="none" xmlns="http://www.w3.org/2000/svg">
<path fill-rule="evenodd" clip-rule="evenodd" d="M12.0003,2.24817c0.4142,0 0.75,0.33579 0.75,0.75v2.00157l0.7997,-0.59974c0.3313,-0.24853 0.8014,-0.18137 1.05,0.15c0.2485,0.33137 0.1813,0.80147 -0.15,1.05l-1.6997,1.27474v3.82166l3.3136,-1.91313l0.2536,-2.10503c0.0496,-0.41124 0.4231,-0.70445 0.8344,-0.65491c0.4112,0.04955 0.7044,0.42309 0.6549,0.83433l-0.1191,0.98811l1.7341,-1.0012c0.3588,-0.2071 0.8174,-0.0842 1.0246,0.27452c0.2071,0.35872 0.0842,0.81741 -0.2746,1.02452l-1.739,1.00404l0.924,0.39469c0.3809,0.16271 0.5578,0.60336 0.3951,0.98436c-0.1628,0.3809 -0.6035,0.5578 -0.9844,0.3951l-1.9585,-0.8366l-3.3029,1.9069l3.3187,1.916l1.9427,-0.8299c0.381,-0.1627 0.8217,0.0142 0.9844,0.3951c0.1627,0.3809 -0.0142,0.8216 -0.3951,0.9844l-0.9082,0.3879l1.7279,0.9976c0.3587,0.2071 0.4816,0.6658 0.2745,1.0245c-0.2071,0.3587 -0.6658,0.4816 -1.0245,0.2745l-1.7408,-1.005l0.1211,1.0051c0.0495,0.4113 -0.2437,0.7848 -0.6549,0.8344c-0.4113,0.0495 -0.7848,-0.2437 -0.8344,-0.6549l-0.2556,-2.1221l-3.3116,-1.912v3.8376l1.6997,1.2747c0.3313,0.2485 0.3985,0.7186 0.15,1.05c-0.2486,0.3314 -0.7187,0.3985 -1.05,0.15l-0.7997,-0.5997v1.9979c0,0.4142 -0.3358,0.75 -0.75,0.75c-0.4142,0 -0.75,-0.3358 -0.75,-0.75v-1.9985l-0.8003,0.6003c-0.3314,0.2485 -0.8015,0.1814 -1.05003,-0.15c-0.24853,-0.3314 -0.18137,-0.8015 0.15,-1.05l1.70033,-1.2753v-3.8302l-3.31314,1.9128l-0.25475,2.1145c-0.04955,0.4112 -0.42309,0.7044 -0.83433,0.6549c-0.41124,-0.0496 -0.70445,-0.4231 -0.6549,-0.8344l0.12018,-0.9975l-1.72998,0.9988c-0.35872,0.2071 -0.81742,0.0842 -1.02452,-0.2745c-0.20711,-0.3587 -0.0842,-0.8174 0.27452,-1.0245l1.72504,-0.996l-0.91524,-0.3909c-0.38092,-0.1628 -0.55781,-0.6034 -0.3951,-0.9844c0.16271,-0.3809 0.60341,-0.5578 0.98433,-0.3951l1.94981,0.8329l3.32388,-1.919l-3.30806,-1.91l-1.96563,0.8397c-0.38092,0.1627 -0.82161,-0.0142 -0.98433,-0.3951c-0.16271,-0.381 0.01418,-0.82166 0.3951,-0.98437l0.93106,-0.39771l-1.73624,-1.00242c-0.35872,-0.2071 -0.48163,-0.6658 -0.27452,-1.02452c0.20711,-0.35872 0.6658,-0.48162 1.02452,-0.27451l1.72331,0.99495l-0.11813,-0.98047c-0.04954,-0.41124 0.24367,-0.78478 0.65491,-0.83433c0.41124,-0.04954 0.78478,0.24367 0.83432,0.65491l0.2527,2.09739l3.31519,1.91408v-3.81444l-1.70033,-1.27526c-0.33137,-0.24853 -0.39853,-0.71863 -0.15,-1.05c0.24853,-0.33137 0.71863,-0.39853 1.05003,-0.15l0.8003,0.60026v-2.00209c0,-0.41421 0.3358,-0.75 0.75,-0.75z" fill="#002B51"/>
</svg>

<svg width="24" height="24" viewBox="0 0 24 24" fill="none" xmlns="http://www.w3.org/2000/svg">
<path fill-rule="evenodd" clip-rule="evenodd" d="M12.0003 2.24817C12.4145 2.24817 12.7503 2.58396 12.7503 2.99817V4.99974L13.55 4.4C13.8813 4.15147 14.3514 4.21863 14.6 4.55C14.8485 4.88137 14.7813 5.35147 14.45 5.6L12.7503 6.87474V10.6964L16.0639 8.78327L16.3175 6.67824C16.3671 6.267 16.7406 5.97379 17.1519 6.02333C17.5631 6.07288 17.8563 6.44642 17.8068 6.85766L17.6877 7.84577L19.4218 6.84457C19.7806 6.63747 20.2392 6.76037 20.4464 7.11909C20.6535 7.47781 20.5306 7.9365 20.1718 8.14361L18.4328 9.14765L19.3568 9.54234C19.7377 9.70505 19.9146 10.1457 19.7519 10.5267C19.5891 10.9076 19.1484 11.0845 18.7675 10.9218L16.809 10.0852L13.5061 11.9921L16.8248 13.9081L18.7675 13.0782C19.1485 12.9155 19.5892 13.0924 19.7519 13.4733C19.9146 13.8542 19.7377 14.2949 19.3568 14.4577L18.4486 14.8456L20.1765 15.8432C20.5352 16.0503 20.6581 16.509 20.451 16.8677C20.2439 17.2264 19.7852 17.3493 19.4265 17.1422L17.6857 16.1372L17.8068 17.1423C17.8563 17.5536 17.5631 17.9271 17.1519 17.9767C16.7406 18.0262 16.3671 17.733 16.3175 17.3218L16.0619 15.1997L12.7503 13.2877V17.1253L14.45 18.4C14.7813 18.6485 14.8485 19.1186 14.6 19.45C14.3514 19.7814 13.8813 19.8485 13.55 19.6L12.7503 19.0003V20.9982C12.7503 21.4124 12.4145 21.7482 12.0003 21.7482C11.5861 21.7482 11.2503 21.4124 11.2503 20.9982V18.9997L10.45 19.6C10.1186 19.8485 9.6485 19.7814 9.39997 19.45C9.15144 19.1186 9.2186 18.6485 9.54997 18.4L11.2503 17.1247V13.2945L7.93716 15.2073L7.68241 17.3218C7.63286 17.733 7.25932 18.0262 6.84808 17.9767C6.43684 17.9271 6.14363 17.5536 6.19318 17.1423L6.31336 16.1448L4.58338 17.1436C4.22466 17.3507 3.76596 17.2278 3.55886 16.8691C3.35175 16.5104 3.47466 16.0517 3.83338 15.8446L5.55842 14.8486L4.64318 14.4577C4.26226 14.2949 4.08537 13.8543 4.24808 13.4733C4.41079 13.0924 4.85149 12.9155 5.23241 13.0782L7.18222 13.9111L10.5061 11.9921L7.19804 10.0821L5.23241 10.9218C4.85149 11.0845 4.4108 10.9076 4.24808 10.5267C4.08537 10.1457 4.26226 9.70504 4.64318 9.54233L5.57424 9.14462L3.838 8.1422C3.47928 7.9351 3.35637 7.4764 3.56348 7.11768C3.77059 6.75896 4.22928 6.63606 4.588 6.84317L6.31131 7.83812L6.19318 6.85765C6.14364 6.44641 6.43685 6.07287 6.84809 6.02332C7.25933 5.97378 7.63287 6.26699 7.68241 6.67823L7.93511 8.77562L11.2503 10.6897V6.87526L9.54997 5.6C9.2186 5.35147 9.15144 4.88137 9.39997 4.55C9.6485 4.21863 10.1186 4.15147 10.45 4.4L11.2503 5.00026V2.99817C11.2503 2.58396 11.5861 2.24817 12.0003 2.24817Z" fill="#002B51"/>
</svg>
